X:1
T:Conlon's  Reel
Z:robin.beech@mcgill.ca
S:Victoria Bar, Glasgow
M:4/4
L:1/8
R:reel
K:D
|: d2cd AFDd | cdAF DEF/E/D | E3F GFED | CDEF GABc |
d2cd AFDd |cdAF DEF/E/D |E2gf edcB |1 ABc/B/A d3c :|2 ABc/B/A d3a |:
^gafd Aa^ga | fdAa ^gafd| e3b bagf |1 edcB ABca :|2 edcB ABc/B/A |
d2cd AFDd | cdAF DEF/E/D | E2gf edcB | ABc/B/A d3c |]
